content/images/general/logo-icon.svg

<?xml version="1.0" encoding="UTF-8" standalone="no"?><!DOCTYPE svg PUBLIC "-//W3C//DTD SVG 1.1//EN" "http://www.w3.org/Graphics/SVG/1.1/DTD/svg11.dtd"><svg width="100%" height="100%" viewBox="0 0 340 307" version="1.1" xmlns="http://www.w3.org/2000/svg" xmlns:xlink="http://www.w3.org/1999/xlink" xml:space="preserve" xmlns:serif="http://www.serif.com/" style="fill-rule:evenodd;clip-rule:evenodd;stroke-linejoin:round;stroke-miterlimit:1.41421;"><g id="icon"><path d="M224.445,38.363c-30.153,0 -54.785,10.829 -73.896,32.489c-5.521,5.945 -11.042,8.918 -16.563,8.918c-5.096,0 -9.45,-1.805 -13.059,-5.415c-3.61,-3.61 -5.415,-7.963 -5.415,-13.059c0,-3.822 1.061,-7.432 3.185,-10.83c21.234,-33.55 56.484,-50.325 105.748,-50.325c36.523,0 64.765,9.767 84.726,29.303c19.96,19.536 29.941,45.867 29.941,78.993l0,175.185c0,5.521 -1.911,10.192 -5.734,14.015c-3.822,3.822 -8.493,5.733 -14.014,5.733c-5.521,0 -10.193,-1.911 -14.015,-5.733c-3.822,-3.823 -5.734,-8.494 -5.734,-14.015l0,-22.933c-7.644,14.439 -19.748,25.693 -36.311,33.763c-16.563,8.069 -34.824,12.103 -54.785,12.103c-33.975,0 -60.837,-7.963 -80.585,-23.889c-19.748,-15.926 -29.622,-38.328 -29.622,-67.207c0,-28.03 9.98,-50.007 29.94,-65.933c19.961,-15.926 47.141,-23.889 81.541,-23.889l89.822,0l0,-17.2c0,-21.659 -6.688,-38.753 -20.066,-51.282c-13.378,-12.528 -31.746,-18.792 -55.104,-18.792Zm-12.104,231.244c23.783,0 44.274,-7.22 61.474,-21.659c17.2,-14.44 25.8,-34.4 25.8,-59.882l0,-26.755l-89.822,0c-21.659,0 -38.753,4.565 -51.281,13.696c-12.529,9.131 -18.793,22.615 -18.793,40.452c0,36.099 24.208,54.148 72.622,54.148Z" style="fill:#fff;fill-rule:nonzero;"/><path id="Ellipse-2" serif:id="Ellipse 2" d="M35.443,235.491c19.218,0 34.797,15.579 34.797,34.796c0,19.217 -15.579,34.796 -34.797,34.796c-19.217,0 -34.796,-15.579 -34.796,-34.796c0,-19.217 15.579,-34.796 34.796,-34.796Z" style="fill:#ffce48;"/></g></svg>

<?xml version="1.0" encoding="UTF-8" standalone="no"?>
<!DOCTYPE svg PUBLIC "-//W3C//DTD SVG 1.1//EN" "http://www.w3.org/Graphics/SVG/1.1/DTD/svg11.dtd">
<svg width="100%" height="100%" viewBox="0 0 340 307" version="1.1" xmlns="http://www.w3.org/2000/svg" xmlns:xlink="http://www.w3.org/1999/xlink" xml:space="preserve" xmlns:serif="http://www.serif.com/" style="fill-rule:evenodd;clip-rule:evenodd;stroke-linejoin:round;stroke-miterlimit:1.41421;">
    <g id="icon">
        <path d="M224.445,38.363C194.292,38.363 169.66,49.192 150.549,70.852C145.028,76.797 139.507,79.77 133.986,79.77C128.89,79.77 124.536,77.965 120.927,74.355C117.317,70.745 115.512,66.392 115.512,61.296C115.512,57.474 116.573,53.864 118.697,50.466C139.931,16.916 175.181,0.141 224.445,0.141C260.968,0.141 289.21,9.908 309.171,29.444C329.131,48.98 339.112,75.311 339.112,108.437L339.112,283.622C339.112,289.143 337.201,293.814 333.378,297.637C329.556,301.459 324.885,303.37 319.364,303.37C313.843,303.37 309.171,301.459 305.349,297.637C301.527,293.814 299.615,289.143 299.615,283.622L299.615,260.689C291.971,275.128 279.867,286.382 263.304,294.452C246.741,302.521 228.48,306.555 208.519,306.555C174.544,306.555 147.682,298.592 127.934,282.666C108.186,266.74 98.312,244.338 98.312,215.459C98.312,187.429 108.292,165.452 128.252,149.526C148.213,133.6 175.393,125.637 209.793,125.637L299.615,125.637L299.615,108.437C299.615,86.778 292.927,69.684 279.549,57.155C266.171,44.627 247.803,38.363 224.445,38.363ZM212.341,269.607C236.124,269.607 256.615,262.387 273.815,247.948C291.015,233.508 299.615,213.548 299.615,188.066L299.615,161.311L209.793,161.311C188.134,161.311 171.04,165.876 158.512,175.007C145.983,184.138 139.719,197.622 139.719,215.459C139.719,251.558 163.927,269.607 212.341,269.607Z" style="fill:rgb(21,17,37);fill-rule:nonzero;"/>
        <path id="Ellipse-2" serif:id="Ellipse 2" d="M35.443,235.491C54.661,235.491 70.24,251.07 70.24,270.287C70.24,289.504 54.661,305.083 35.443,305.083C16.226,305.083 0.647,289.504 0.647,270.287C0.647,251.07 16.226,235.491 35.443,235.491Z" style="fill:rgb(255,206,72);"/>
    </g>
</svg>
